!!!!SEGMENT: Any3015-En_revenant_du_bois--Second_livre_de_chansons.krn
!!!id: Any3015
!!!AGN: Chanson
!!!voices: 3
!!!COM: Anonymous
!!!SMS: Second livre de chansons
!!!OTL: En revenant du bois (Second livre de chansons)
**kern	**kern	**kern
*part3	*part2	*part1
*staff3	*staff2	*staff1
*I"Bassus	*I"Tenor II	*I"Tenor I
*I'B	*I'T. II	*I'T. I
*clefF4	*clefGv2	*clefGv2
*k[]	*k[]	*k[]
*C:	*C:	*C:
*M2/1	*M2/1	*M2/1
*met(C|)	*met(C|)	*met(C|)
=1	=1	=1
1A	0r	1r
2A	.	1e
2A	.	.
=2	=2	=2
1.A	0r	2e
.	.	2e
.	.	[1e
2G	.	.
=3	=3	=3
1G	0r	2e]
.	.	2d
[1F	.	1d
=4	=4	=4
2F]	1A	2.c
4E	.	.
4D	.	4d
2C	2A	2e
[2D	2A	[2f
=5	=5	=5
2D]	1.A	2f]
4C	.	4e
4BB	.	4d
2AA	.	4c
.	.	4d
[2C	2G	[2e
=6	=6	=6
4C]	1G	4e]
4D	.	4d
4E	.	4c
4C	.	4B
4D	1F	1A
4E	.	.
[2F	.	.
=7	=7	=7
2F]	0G	2r
4E	.	2c
4D	.	.
1E	.	2c
.	.	2c
=8	=8	=8
1D	1F	1.d
2r	2G	.
2C	2G	[2e
=9	=9	=9
2C	1.A	2e]
2C	.	4d
.	.	4c
2D	.	2f
2E	2G	[2e
=10	=10	=10
2C	4G	2e]
.	4F	.
2D	4E	1d
.	4D	.
1AA	2E	.
.	2E	2c#i
=11	=11	=11
2r	1D	1d
2A	.	.
2A	1r	2r
2A	.	2e
=12	=12	=12
1.A	0r	2e
.	.	2e
.	.	[1e
2G	.	.
=13	=13	=13
1G	0r	2e]
.	.	2d
[1F	.	1d
=14	=14	=14
2F]	1A	2.c
4E	.	.
4D	.	4d
2C	2A	2e
[2D	2A	[2f
=15	=15	=15
2D]	1.A	2f]
4C	.	4e
4BB	.	4d
2AA	.	4c
.	.	4d
[2C	2G	[2e
=16	=16	=16
4C]	1G	4e]
4D	.	4d
4E	.	4c
4C	.	4B
4D	1F	1A
4E	.	.
[2F	.	.
=17	=17	=17
2F]	0G	2r
4E	.	2c
4D	.	.
1E	.	2c
.	.	2c
=18	=18	=18
1D	1F	1.d
2r	2G	.
2C	2G	[2e
=19	=19	=19
2C	1.A	2e]
2C	.	4d
.	.	4c
2D	.	2f
2E	2G	[2e
=20	=20	=20
2C	4G	2e]
.	4F	.
2D	4E	1d
.	4D	.
1AA	2E	.
.	2E	2c#i
=21	=21	=21
2r	0D	1d
2F	.	.
2F	.	2r
2F	.	2d
=22	=22	=22
2.G	0r	2d
.	.	2d
4A	.	.
2B-i	.	4d
.	.	4e
[2A	.	4f
.	.	4d
=23	=23	=23
4A]	2r	2e
4G	.	.
4F	2F	2.f
4E	.	.
2D	2F	.
.	.	4e
2F	2F	[2c
=24	=24	=24
2.E	1.G	4c]
.	.	4d
.	.	2.e
4D	.	.
4C	.	.
4BB	.	4d
2AA	2A	4c
.	.	4B
=25	=25	=25
2D	2F	2A
2BB	4E	1d
.	4D	.
1AA	2E	.
.	2E	2c#i
=26	=26	=26
2r	0D	1d
2D	.	.
2F	.	2r
2F	.	2A
=27	=27	=27
1.F	1A	2c
.	.	2c
.	2A	2.c
4E	2A	.
4D	.	4d
=28	=28	=28
2C	1.A	4e
.	.	4c
2D	.	1f
2AA	.	.
[2C	2G	[2e
=29	=29	=29
4C]	1G	4e]
4D	.	4d
4E	.	1c
4C	.	.
1D	1F	.
.	.	2B
=30	=30	=30
0C	0G	1c
.	.	1r
=31	=31	=31
1r	0r	1c
1F	.	2d
.	.	2d
=32	=32	=32
2G	0r	1.e
2G	.	.
[1A	.	.
.	.	2d
=33	=33	=33
2A]	0r	2c
2G	.	2B
2F	.	4A
.	.	4G
2E	.	[2c
=34	=34	=34
1D	1F	2c]
.	.	2B
2.C	2G	[1c
.	2G	.
4BB	.	.
=35	=35	=35
2AA	1.A	1c]
2GG	.	.
[1FF	.	1r
.	2G	.
=36	=36	=36
1FF]	2F	1c
.	2E	.
1F	1D	2d
.	.	2d
=37	=37	=37
2G	1C	1.e
2G	.	.
[1A	1r	.
.	.	2d
=38	=38	=38
2A]	0r	2c
2G	.	2B
2F	.	4A
.	.	4G
2E	.	[2c
=39	=39	=39
1D	0r	2c]
.	.	2B
1C	.	[1c
=40	=40	=40
2r	1A	1c]
2F	.	.
2F	2A	2r
2F	2A	2c
=41	=41	=41
1.E	1.G	2c
.	.	2c
.	.	2B
2C	2A	2c
=42	=42	=42
2D	2F	2A
2BB	4E	1d
.	4D	.
1AA	2E	.
.	2E	2c#i
=43	=43	=43
2r	2D	1d
2F	2A	.
2F	2A	2r
2F	2A	2c
=44	=44	=44
1.E	1.G	2c
.	.	2c
.	.	2B
2C	2A	2c
=45	=45	=45
2D	2F	2A
2BB	4E	1d
.	4D	.
1AA	2E	.
.	2E	2c#i
=46	=46	=46
00Dl	00Dl	00dl
==	==	==
*-	*-	*-
!!!system-decoration: [*]
!!!RDF**kern: i = editorial accidental
!!!RDF**kern: l = terminal long
!!!ENC: Benjamin Ory
!!!END: 2024/12/5
!!!EED: Benjamin Ory
!!!EEV: 2024/12/05
!!!YEC: Copyright 2024 Benjamin Ory, All Rights Reserved
!!!ONB: Translated from MusicXML on 2024/12/05
